svg/tractor_variant.svg

<svg xmlns="http://www.w3.org/2000/svg" viewBox="0 0 24 24"><path d="m13.3 2.79-3.5 3.5.7.71 1.4-1.39 1.1 1.1V9c0 1.11-.89 2-2 2h-.54A6 6 0 0 1 12 15a6 6 0 0 1-.09 1h3.12a4.5 4.5 0 0 1 4.47-4 4.5 4.5 0 0 1 2.5.76V8c0-1.11-.89-2-2-2h-6.29l-1.1-1.1L14 3.5zM4 7c-.55 0-1 .45-1 1s.45 1 1 1h5a2 2 0 0 0-2-2zm2 3a5 5 0 0 0-1.56.25l.36.93-.47.18-.33-.93a5 5 0 0 0-2.46 2.31l.91.41-.21.45-.9-.4A5 5 0 0 0 1 15a5 5 0 0 0 .25 1.56l.93-.36.18.47-.93.33a5 5 0 0 0 2.31 2.46l.4-.91.46.21-.4.9A5 5 0 0 0 6 20a5 5 0 0 0 1.56-.25l-.36-.93.47-.18.33.93a5 5 0 0 0 2.46-2.31l-.91-.4.21-.46.9.4A5 5 0 0 0 11 15a5 5 0 0 0-.25-1.56l-.93.36-.18-.47.93-.33a5 5 0 0 0-2.31-2.46l-.4.91-.46-.21.4-.9A5 5 0 0 0 6 10m0 2a3 3 0 0 1 3 3 3 3 0 0 1-3 3 3 3 0 0 1-3-3 3 3 0 0 1 3-3m13.5 1a3.5 3.5 0 0 0-3.5 3.5 3.5 3.5 0 0 0 3.5 3.5 3.5 3.5 0 0 0 3.5-3.5 3.5 3.5 0 0 0-3.5-3.5m0 2a1.5 1.5 0 0 1 1.5 1.5 1.5 1.5 0 0 1-1.5 1.5 1.5 1.5 0 0 1-1.5-1.5 1.5 1.5 0 0 1 1.5-1.5"/></svg>

<?xml version="1.0" encoding="UTF-8"?><!DOCTYPE svg PUBLIC "-//W3C//DTD SVG 1.1//EN" "http://www.w3.org/Graphics/SVG/1.1/DTD/svg11.dtd"><svg xmlns="http://www.w3.org/2000/svg" xmlns:xlink="http://www.w3.org/1999/xlink" version="1.1" id="mdi-tractor-variant" width="24" height="24" viewBox="0 0 24 24"><path d="M13.3 2.79L9.8 6.29L10.5 7L11.9 5.61L13 6.71V9C13 10.11 12.11 11 11 11H10.46A6 6 0 0 1 12 15A6 6 0 0 1 11.91 16H15.03A4.5 4.5 0 0 1 19.5 12A4.5 4.5 0 0 1 22 12.76V8C22 6.89 21.11 6 20 6H13.71L12.61 4.9L14 3.5L13.3 2.79M4 7C3.45 7 3 7.45 3 8C3 8.55 3.45 9 4 9H9C9 7.9 8.11 7 7 7H4M6 10A5 5 0 0 0 4.44 10.25L4.8 11.18L4.33 11.36L4 10.43A5 5 0 0 0 1.54 12.74L2.45 13.15L2.24 13.6L1.34 13.2A5 5 0 0 0 1 15A5 5 0 0 0 1.25 16.56L2.18 16.2L2.36 16.67L1.43 17A5 5 0 0 0 3.74 19.46L4.14 18.55L4.6 18.76L4.2 19.66A5 5 0 0 0 6 20A5 5 0 0 0 7.56 19.75L7.2 18.82L7.67 18.64L8 19.57A5 5 0 0 0 10.46 17.26L9.55 16.86L9.76 16.4L10.66 16.8A5 5 0 0 0 11 15A5 5 0 0 0 10.75 13.44L9.82 13.8L9.64 13.33L10.57 13A5 5 0 0 0 8.26 10.54L7.86 11.45L7.4 11.24L7.8 10.34A5 5 0 0 0 6 10M6 12A3 3 0 0 1 9 15A3 3 0 0 1 6 18A3 3 0 0 1 3 15A3 3 0 0 1 6 12M19.5 13A3.5 3.5 0 0 0 16 16.5A3.5 3.5 0 0 0 19.5 20A3.5 3.5 0 0 0 23 16.5A3.5 3.5 0 0 0 19.5 13M19.5 15A1.5 1.5 0 0 1 21 16.5A1.5 1.5 0 0 1 19.5 18A1.5 1.5 0 0 1 18 16.5A1.5 1.5 0 0 1 19.5 15Z" /></svg>
